gtk-icons/Papirus-GTK/22x22/actions/format-precision-less.svg

<?xml version="1.0" encoding="UTF-8" standalone="no"?>
<!-- Created with Inkscape (http://www.inkscape.org/) -->

<svg
   xmlns:dc="http://purl.org/dc/elements/1.1/"
   xmlns:cc="http://creativecommons.org/ns#"
   xmlns:rdf="http://www.w3.org/1999/02/22-rdf-syntax-ns#"
   xmlns:svg="http://www.w3.org/2000/svg"
   xmlns="http://www.w3.org/2000/svg"
   xmlns:sodipodi="http://sodipodi.sourceforge.net/DTD/sodipodi-0.dtd"
   xmlns:inkscape="http://www.inkscape.org/namespaces/inkscape"
   width="22"
   height="22"
   id="svg3049"
   version="1.1"
   inkscape:version="0.91 r13725"
   sodipodi:docname="format-precision-less.svg"
   inkscape:export-filename="/home/uri/.kde/share/icons/NITRUX-KDE/16x16/actions/view-right-new.png"
   inkscape:export-xdpi="30"
   inkscape:export-ydpi="30">
  <defs
     id="defs3051">
    <style
       type="text/css"
       id="current-color-scheme">
      .ColorScheme-Text {
        color:#4d4d4d;
      }
      .ColorScheme-Background {
        color:#eff0f1;
      }
      .ColorScheme-Highlight {
        color:#3daee9;
      }
      .ColorScheme-ViewText {
        color:#31363b;
      }
      .ColorScheme-ViewBackground {
        color:#fcfcfc;
      }
      .ColorScheme-ViewHover {
        color:#93cee9;
      }
      .ColorScheme-ViewFocus{
        color:#3daee9;
      }
      .ColorScheme-ButtonText {
        color:#31363b;
      }
      .ColorScheme-ButtonBackground {
        color:#eff0f1;
      }
      .ColorScheme-ButtonHover {
        color:#93cee9;
      }
      .ColorScheme-ButtonFocus{
        color:#3daee9;
      }
      </style>
    <style
       id="current-color-scheme-7"
       type="text/css">
      .ColorScheme-Text {
        color:#4d4d4d;
      }
      .ColorScheme-Background {
        color:#eff0f1;
      }
      .ColorScheme-Highlight {
        color:#3daee9;
      }
      .ColorScheme-ViewText {
        color:#31363b;
      }
      .ColorScheme-ViewBackground {
        color:#fcfcfc;
      }
      .ColorScheme-ViewHover {
        color:#93cee9;
      }
      .ColorScheme-ViewFocus{
        color:#3daee9;
      }
      .ColorScheme-ButtonText {
        color:#31363b;
      }
      .ColorScheme-ButtonBackground {
        color:#eff0f1;
      }
      .ColorScheme-ButtonHover {
        color:#93cee9;
      }
      .ColorScheme-ButtonFocus{
        color:#3daee9;
      }
      </style>
  </defs>
  <sodipodi:namedview
     id="base"
     pagecolor="#ffffff"
     bordercolor="#666666"
     borderopacity="1.0"
     inkscape:pageopacity="0.0"
     inkscape:pageshadow="2"
     inkscape:zoom="15.07"
     inkscape:cx="-1.0912324"
     inkscape:cy="10.286969"
     inkscape:document-units="px"
     inkscape:current-layer="layer1"
     showgrid="false"
     fit-margin-top="0"
     fit-margin-left="0"
     fit-margin-right="0"
     fit-margin-bottom="0"
     inkscape:window-width="1600"
     inkscape:window-height="847"
     inkscape:window-x="0"
     inkscape:window-y="30"
     inkscape:window-maximized="1"
     inkscape:showpageshadow="false"
     borderlayer="true"
     inkscape:object-nodes="true"
     showguides="false">
    <sodipodi:guide
       position="2.0000044,20.00003"
       orientation="18,0"
       id="guide4067" />
    <sodipodi:guide
       position="2.0000044,2.0000296"
       orientation="0,18"
       id="guide4069" />
    <sodipodi:guide
       position="20.000004,2.0000296"
       orientation="-18,0"
       id="guide4071" />
    <sodipodi:guide
       position="20.000004,20.00003"
       orientation="0,-18"
       id="guide4073" />
    <sodipodi:guide
       position="3.0000044,19.00003"
       orientation="16,0"
       id="guide4077" />
    <sodipodi:guide
       position="3.0000044,3.0000296"
       orientation="0,16"
       id="guide4079" />
    <sodipodi:guide
       position="19.000004,3.0000296"
       orientation="-16,0"
       id="guide4081" />
    <sodipodi:guide
       position="19.000004,19.00003"
       orientation="0,-16"
       id="guide4083" />
    <inkscape:grid
       type="xygrid"
       id="grid4085" />
    <sodipodi:guide
       position="11.000004,18.999969"
       orientation="0,-6"
       id="guide4175" />
    <sodipodi:guide
       position="9.9999739,18.999969"
       orientation="0,-4.9999695"
       id="guide4201" />
  </sodipodi:namedview>
  <metadata
     id="metadata3054">
    <rdf:RDF>
      <cc:Work
         rdf:about="">
        <dc:format>image/svg+xml</dc:format>
        <dc:type
           rdf:resource="http://purl.org/dc/dcmitype/StillImage" />
        <dc:title></dc:title>
      </cc:Work>
    </rdf:RDF>
  </metadata>
  <g
     inkscape:label="Capa 1"
     inkscape:groupmode="layer"
     id="layer1"
     transform="translate(-421.71429,-525.79074)">
    <path
       style="color:#000000;display:inline;overflow:visible;visibility:visible;fill:#000000;fill-opacity:1;fill-rule:evenodd;stroke:none;stroke-width:2;marker:none;enable-background:accumulate;opacity:0.5"
       d="M 7.5 3 C 5.567 3 4 4.7909 4 7 L 4 8 L 4 10 C 4 12.2091 5.567 14 7.5 14 C 9.433 14 11 12.2091 11 10 L 11 8 L 11 7 C 11 4.7909 9.433 3 7.5 3 z M 15.5 3 C 13.567 3 12 4.7909 12 7 L 12 8 L 12 10 C 12 12.2091 13.567 14 15.5 14 C 17.433 14 19 12.2091 19 10 L 19 8 L 19 7 C 19 4.7909 17.433 3 15.5 3 z M 7.5 5 C 8.32843 5 9 6.0452844 9 7.3339844 L 9 9.6660156 C 9 10.954716 8.32843 12 7.5 12 C 6.67157 12 6 10.954716 6 9.6660156 L 6 7.3339844 C 6 6.0452844 6.67157 5 7.5 5 z M 15.5 5 C 16.32843 5 17 6.0452844 17 7.3339844 L 17 9.6660156 C 17 10.954716 16.32843 12 15.5 12 C 14.67157 12 14 10.954716 14 9.6660156 L 14 7.3339844 C 14 6.0452844 14.67157 5 15.5 5 z M 3 13 L 3 14 L 4 14 L 4 13 L 3 13 z M 14.707031 14.757812 L 14 15.464844 L 15.414062 16.878906 L 14 18.292969 L 14.707031 19 L 16.121094 17.585938 L 17.535156 19 L 18.242188 18.292969 L 16.828125 16.878906 L 18.242188 15.464844 L 17.535156 14.757812 L 16.121094 16.171875 L 14.707031 14.757812 z "
       transform="translate(421.71429,525.79074)"
       id="rect3767-3" />
  </g>
</svg>

<?xml version="1.0" encoding="UTF-8" standalone="no"?>
<!-- Created with Inkscape (http://www.inkscape.org/) -->
<svg id="svg3049" xmlns:rdf="http://www.w3.org/1999/02/22-rdf-syntax-ns#" xmlns="http://www.w3.org/2000/svg" height="22" width="22" version="1.1" xmlns:cc="http://creativecommons.org/ns#" xmlns:dc="http://purl.org/dc/elements/1.1/">
 <defs id="defs3051">
  <style id="current-color-scheme" type="text/css">.ColorScheme-Text {
        color:#4d4d4d;
      }
      .ColorScheme-Background {
        color:#eff0f1;
      }
      .ColorScheme-Highlight {
        color:#3daee9;
      }
      .ColorScheme-ViewText {
        color:#31363b;
      }
      .ColorScheme-ViewBackground {
        color:#fcfcfc;
      }
      .ColorScheme-ViewHover {
        color:#93cee9;
      }
      .ColorScheme-ViewFocus{
        color:#3daee9;
      }
      .ColorScheme-ButtonText {
        color:#31363b;
      }
      .ColorScheme-ButtonBackground {
        color:#eff0f1;
      }
      .ColorScheme-ButtonHover {
        color:#93cee9;
      }
      .ColorScheme-ButtonFocus{
        color:#3daee9;
      }</style>
  <style id="current-color-scheme-7" type="text/css">.ColorScheme-Text {
        color:#4d4d4d;
      }
      .ColorScheme-Background {
        color:#eff0f1;
      }
      .ColorScheme-Highlight {
        color:#3daee9;
      }
      .ColorScheme-ViewText {
        color:#31363b;
      }
      .ColorScheme-ViewBackground {
        color:#fcfcfc;
      }
      .ColorScheme-ViewHover {
        color:#93cee9;
      }
      .ColorScheme-ViewFocus{
        color:#3daee9;
      }
      .ColorScheme-ButtonText {
        color:#31363b;
      }
      .ColorScheme-ButtonBackground {
        color:#eff0f1;
      }
      .ColorScheme-ButtonHover {
        color:#93cee9;
      }
      .ColorScheme-ButtonFocus{
        color:#3daee9;
      }</style>
 </defs>
 <metadata id="metadata3054">
  <rdf:RDF>
   <cc:Work rdf:about="">
    <dc:format>image/svg+xml</dc:format>
    <dc:type rdf:resource="http://purl.org/dc/dcmitype/StillImage"/>
    <dc:title/>
   </cc:Work>
  </rdf:RDF>
 </metadata>
 <g id="layer1" transform="translate(-421.71 -525.79)">
  <path id="rect3767-3" opacity=".5" style="color:#000000" d="m7.5 3c-1.933 0-3.5 1.7909-3.5 4v1 2c0 2.209 1.567 4 3.5 4s3.5-1.791 3.5-4v-2-1c0-2.2091-1.567-4-3.5-4zm8 0c-1.933 0-3.5 1.7909-3.5 4v1 2c0 2.209 1.567 4 3.5 4s3.5-1.791 3.5-4v-2-1c0-2.2091-1.567-4-3.5-4zm-8 2c0.8284 0 1.5 1.0453 1.5 2.334v2.332c0 1.289-0.6716 2.334-1.5 2.334s-1.5-1.045-1.5-2.334v-2.332c0-1.2887 0.6716-2.334 1.5-2.334zm8 0c0.828 0 1.5 1.0453 1.5 2.334v2.332c0 1.289-0.672 2.334-1.5 2.334s-1.5-1.045-1.5-2.334v-2.332c0-1.2887 0.672-2.334 1.5-2.334zm-12.5 8v1h1v-1h-1zm11.707 1.758l-0.707 0.707 1.414 1.414-1.414 1.414 0.707 0.707 1.414-1.414 1.414 1.414 0.707-0.707-1.414-1.414 1.414-1.414-0.707-0.707-1.414 1.414-1.414-1.414z" fill-rule="evenodd" transform="translate(421.71 525.79)"/>
 </g>
</svg>
